src/icons/traces.svg

<?xml version="1.0" encoding="UTF-8"?>
<svg xmlns="http://www.w3.org/2000/svg" xmlns:xlink="http://www.w3.org/1999/xlink" width="32" height="32" viewBox="0 0 32 32" version="1.1">
<g id="surface1">
<path style=" stroke:none;fill-rule:nonzero;fill:rgb(25.098041%,25.098041%,25.490198%);fill-opacity:1;" d="M 29.503906 26.945312 C 29.375 26.945312 29.246094 26.945312 29.121094 26.976562 L 26.71875 22.144531 C 27.167969 21.695312 27.457031 21.054688 27.457031 20.351562 C 27.460938 19.742188 27.242188 19.152344 26.847656 18.6875 L 28.929688 15.199219 C 29.121094 15.230469 29.3125 15.265625 29.503906 15.265625 C 30.878906 15.265625 32 14.144531 32 12.734375 C 32 11.328125 30.878906 10.207031 29.503906 10.207031 C 28.734375 10.207031 28.03125 10.558594 27.585938 11.136719 L 24.257812 9.824219 L 24.257812 9.664062 C 24.257812 8.289062 23.136719 7.136719 21.761719 7.136719 C 21.441406 7.136719 21.121094 7.199219 20.863281 7.328125 L 18.078125 3.871094 C 18.335938 3.488281 18.496094 3.007812 18.496094 2.496094 C 18.496094 1.117188 17.378906 0.00390625 16 0 C 14.625 0 13.503906 1.121094 13.503906 2.527344 C 13.503906 2.910156 13.601562 3.265625 13.726562 3.585938 L 11.199219 5.953125 C 10.847656 5.726562 10.433594 5.632812 9.984375 5.632812 C 8.609375 5.632812 7.488281 6.753906 7.488281 8.160156 C 7.488281 8.863281 7.777344 9.503906 8.222656 9.953125 L 5.824219 14.785156 C 5.695312 14.753906 5.566406 14.753906 5.441406 14.753906 C 4.773438 14.753906 4.136719 15.023438 3.667969 15.5 C 3.199219 15.972656 2.9375 16.613281 2.945312 17.28125 C 2.945312 18.175781 3.425781 18.976562 4.128906 19.425781 L 2.335938 26.945312 C 1.019531 27.054688 0.00390625 28.152344 0 29.472656 C 0 30.847656 1.121094 32 2.496094 32 C 3.871094 32 4.992188 30.878906 4.992188 29.472656 L 4.992188 29.441406 L 9.503906 27.902344 C 9.964844 28.554688 10.71875 28.941406 11.519531 28.929688 C 12.511719 28.929688 13.34375 28.351562 13.761719 27.519531 L 18.046875 28.160156 C 18.21875 29.210938 19.039062 30.035156 20.089844 30.207031 C 21.140625 30.382812 22.183594 29.867188 22.6875 28.929688 L 27.039062 29.761719 C 27.199219 31.007812 28.257812 31.96875 29.503906 31.96875 C 30.878906 31.96875 32 30.847656 32 29.441406 C 32 28.097656 30.878906 26.945312 29.503906 26.945312 M 29.503906 30.464844 C 29.214844 30.464844 28.960938 30.335938 28.769531 30.144531 C 28.601562 29.976562 28.507812 29.742188 28.511719 29.503906 C 28.511719 29.441406 28.511719 29.375 28.542969 29.3125 C 28.609375 29.023438 28.792969 28.777344 29.054688 28.640625 C 29.183594 28.578125 29.328125 28.542969 29.472656 28.542969 C 29.632812 28.542969 29.761719 28.574219 29.886719 28.640625 C 30.207031 28.800781 30.433594 29.121094 30.433594 29.503906 C 30.433594 29.566406 30.433594 29.632812 30.398438 29.695312 C 30.335938 29.984375 30.148438 30.230469 29.886719 30.367188 C 29.824219 30.433594 29.664062 30.464844 29.503906 30.464844 M 20.929688 28.609375 C 20.789062 28.671875 20.636719 28.707031 20.480469 28.703125 C 20.222656 28.703125 19.96875 28.574219 19.777344 28.414062 C 19.617188 28.222656 19.488281 28 19.488281 27.742188 L 19.488281 27.617188 C 19.523438 27.316406 19.703125 27.054688 19.96875 26.910156 C 20.097656 26.816406 20.289062 26.785156 20.449219 26.785156 C 20.734375 26.785156 20.992188 26.910156 21.183594 27.105469 C 21.351562 27.273438 21.445312 27.503906 21.441406 27.742188 C 21.441406 27.808594 21.441406 27.871094 21.40625 27.9375 C 21.40625 28.222656 21.214844 28.449219 20.929688 28.609375 M 11.96875 27.265625 C 11.839844 27.359375 11.648438 27.390625 11.488281 27.390625 C 11.359375 27.390625 11.265625 27.359375 11.167969 27.328125 C 11.023438 27.265625 10.894531 27.179688 10.785156 27.070312 C 10.671875 26.96875 10.59375 26.835938 10.558594 26.6875 C 10.519531 26.585938 10.5 26.476562 10.496094 26.367188 C 10.496094 26.207031 10.527344 26.046875 10.625 25.921875 C 10.625 25.886719 10.65625 25.855469 10.6875 25.824219 C 10.757812 25.722656 10.84375 25.636719 10.945312 25.566406 C 11.105469 25.472656 11.265625 25.40625 11.488281 25.40625 C 11.550781 25.40625 11.648438 25.40625 11.710938 25.441406 C 11.742188 25.441406 11.777344 25.441406 11.777344 25.472656 C 12.03125 25.566406 12.257812 25.761719 12.351562 26.015625 C 12.351562 26.046875 12.382812 26.046875 12.382812 26.078125 C 12.414062 26.175781 12.449219 26.304688 12.449219 26.398438 L 12.449219 26.527344 C 12.429688 26.839844 12.246094 27.121094 11.96875 27.265625 M 2.496094 30.464844 C 2.105469 30.445312 1.761719 30.210938 1.601562 29.855469 C 1.539062 29.738281 1.503906 29.605469 1.503906 29.472656 C 1.496094 29.167969 1.640625 28.878906 1.886719 28.703125 C 2.058594 28.5625 2.273438 28.484375 2.496094 28.480469 C 2.558594 28.480469 2.65625 28.480469 2.71875 28.511719 C 3.039062 28.574219 3.296875 28.832031 3.390625 29.152344 C 3.433594 29.253906 3.457031 29.363281 3.457031 29.472656 C 3.453125 29.664062 3.398438 29.851562 3.296875 30.015625 C 3.105469 30.273438 2.816406 30.464844 2.496094 30.464844 M 3.808594 27.328125 L 5.664062 19.808594 C 6.980469 19.699219 7.996094 18.601562 8 17.28125 C 8 16.574219 7.710938 15.9375 7.265625 15.488281 L 9.664062 10.65625 C 9.789062 10.683594 9.917969 10.691406 10.046875 10.6875 C 10.175781 10.6875 10.304688 10.6875 10.433594 10.65625 L 12.800781 15.457031 C 12.328125 15.933594 12.0625 16.578125 12.0625 17.246094 C 12.0625 18.078125 12.480469 18.816406 13.089844 19.296875 L 11.519531 23.902344 L 11.488281 23.902344 C 10.113281 23.902344 8.992188 25.023438 8.992188 26.433594 L 8.992188 26.464844 L 4.480469 27.96875 C 4.320312 27.710938 4.0625 27.488281 3.808594 27.328125 M 4.511719 17.28125 C 4.511719 16.898438 4.734375 16.546875 5.054688 16.414062 C 5.183594 16.351562 5.328125 16.320312 5.472656 16.320312 C 5.632812 16.320312 5.761719 16.355469 5.886719 16.414062 C 6.148438 16.554688 6.335938 16.800781 6.398438 17.09375 C 6.398438 17.152344 6.433594 17.21875 6.433594 17.28125 C 6.433594 17.601562 6.304688 17.855469 6.078125 18.050781 C 5.90625 18.191406 5.695312 18.269531 5.472656 18.273438 C 5.40625 18.273438 5.3125 18.273438 5.246094 18.238281 C 4.957031 18.171875 4.71875 17.972656 4.609375 17.695312 C 4.542969 17.570312 4.507812 17.425781 4.511719 17.28125 M 9.023438 8.164062 C 9.023438 7.777344 9.246094 7.429688 9.566406 7.269531 C 9.660156 7.207031 9.773438 7.171875 9.886719 7.171875 L 9.984375 7.171875 C 10.144531 7.171875 10.273438 7.199219 10.398438 7.269531 C 10.496094 7.328125 10.625 7.394531 10.6875 7.488281 C 10.855469 7.671875 10.949219 7.914062 10.945312 8.160156 L 10.945312 8.355469 C 10.878906 8.640625 10.695312 8.886719 10.433594 9.023438 C 10.292969 9.09375 10.140625 9.125 9.984375 9.121094 C 9.839844 9.125 9.695312 9.09375 9.566406 9.023438 C 9.304688 8.886719 9.121094 8.640625 9.054688 8.355469 C 9.023438 8.289062 9.023438 8.222656 9.023438 8.160156 M 15.902344 1.535156 L 16 1.535156 C 16.0625 1.535156 16.160156 1.535156 16.222656 1.566406 C 16.640625 1.664062 16.960938 2.046875 16.960938 2.496094 L 16.960938 2.527344 C 16.964844 2.824219 16.835938 3.109375 16.609375 3.296875 C 16.4375 3.4375 16.222656 3.515625 16 3.519531 C 15.730469 3.523438 15.472656 3.40625 15.296875 3.199219 C 15.132812 3.015625 15.042969 2.773438 15.039062 2.527344 L 15.039062 2.367188 C 15.136719 1.921875 15.488281 1.601562 15.902344 1.535156 M 21.984375 8.734375 C 22.238281 8.800781 22.464844 8.960938 22.59375 9.183594 C 22.6875 9.34375 22.71875 9.503906 22.71875 9.695312 C 22.71875 9.824219 22.6875 9.953125 22.65625 10.046875 C 22.566406 10.332031 22.335938 10.550781 22.046875 10.625 C 21.984375 10.625 21.953125 10.65625 21.886719 10.65625 L 21.761719 10.65625 C 21.503906 10.65625 21.246094 10.558594 21.089844 10.367188 C 20.894531 10.207031 20.800781 9.953125 20.800781 9.695312 L 20.800781 9.566406 C 20.859375 9.078125 21.269531 8.710938 21.761719 8.703125 C 21.855469 8.703125 21.921875 8.703125 21.984375 8.734375 M 29.246094 11.777344 C 29.34375 11.742188 29.441406 11.742188 29.535156 11.742188 C 29.886719 11.742188 30.207031 11.9375 30.367188 12.222656 C 30.433594 12.351562 30.496094 12.480469 30.496094 12.609375 L 30.496094 12.734375 C 30.496094 13.152344 30.238281 13.503906 29.886719 13.632812 C 29.773438 13.671875 29.652344 13.691406 29.535156 13.695312 C 29.277344 13.695312 29.035156 13.59375 28.855469 13.414062 C 28.675781 13.234375 28.574219 12.988281 28.574219 12.734375 C 28.574219 12.609375 28.609375 12.480469 28.640625 12.382812 C 28.703125 12.097656 28.960938 11.871094 29.246094 11.777344 M 27.648438 14.398438 L 25.566406 17.886719 C 25.375 17.847656 25.183594 17.828125 24.992188 17.824219 C 24.128906 17.824219 23.390625 18.273438 22.945312 18.945312 L 16.992188 17.183594 C 16.992188 16.800781 16.863281 16.414062 16.703125 16.0625 L 20.671875 11.9375 C 20.992188 12.097656 21.375 12.191406 21.792969 12.191406 C 22.558594 12.191406 23.265625 11.839844 23.710938 11.265625 L 27.039062 12.574219 L 27.039062 12.734375 C 27.007812 13.34375 27.265625 13.953125 27.648438 14.398438 M 25.984375 20.351562 C 25.984375 20.414062 25.984375 20.480469 25.953125 20.542969 C 25.890625 20.832031 25.703125 21.078125 25.441406 21.214844 C 25.300781 21.28125 25.148438 21.316406 24.992188 21.3125 C 24.679688 21.316406 24.390625 21.15625 24.222656 20.894531 C 24.191406 20.832031 24.160156 20.769531 24.128906 20.703125 C 24.066406 20.585938 24.03125 20.453125 24.03125 20.320312 C 24.03125 20.222656 24.03125 20.128906 24.0625 20.0625 C 24.097656 20 24.097656 19.9375 24.128906 19.871094 C 24.222656 19.679688 24.414062 19.519531 24.609375 19.425781 C 24.722656 19.382812 24.839844 19.359375 24.960938 19.359375 C 25.023438 19.359375 25.121094 19.359375 25.183594 19.390625 C 25.246094 19.390625 25.3125 19.425781 25.375 19.457031 C 25.40625 19.457031 25.441406 19.488281 25.441406 19.488281 C 25.699219 19.648438 25.863281 19.917969 25.886719 20.222656 C 25.984375 20.257812 25.984375 20.289062 25.984375 20.351562 M 13.566406 17.054688 C 13.632812 16.765625 13.816406 16.519531 14.078125 16.382812 C 14.164062 16.324219 14.265625 16.289062 14.367188 16.289062 L 14.496094 16.289062 C 14.65625 16.289062 14.785156 16.320312 14.910156 16.382812 C 15.015625 16.414062 15.105469 16.484375 15.167969 16.574219 C 15.359375 16.757812 15.464844 17.015625 15.457031 17.28125 C 15.457031 17.375 15.457031 17.472656 15.425781 17.566406 C 15.367188 17.789062 15.230469 17.980469 15.039062 18.113281 C 14.976562 18.144531 14.910156 18.175781 14.847656 18.207031 C 14.734375 18.246094 14.617188 18.269531 14.496094 18.273438 C 14.386719 18.265625 14.277344 18.242188 14.175781 18.207031 C 13.984375 18.136719 13.820312 18.015625 13.695312 17.855469 C 13.632812 17.792969 13.601562 17.695312 13.566406 17.601562 C 13.53125 17.496094 13.511719 17.390625 13.503906 17.28125 L 13.503906 17.152344 C 13.535156 17.121094 13.535156 17.089844 13.566406 17.054688 M 12.960938 24.382812 L 14.464844 19.777344 L 14.496094 19.777344 C 15.359375 19.777344 16.097656 19.328125 16.542969 18.65625 L 22.496094 20.414062 L 22.496094 20.609375 L 13.34375 24.734375 C 13.246094 24.609375 13.121094 24.511719 12.960938 24.382812 M 16 5.054688 C 16.320312 5.054688 16.640625 4.992188 16.894531 4.863281 L 19.679688 8.320312 C 19.488281 8.640625 19.359375 8.992188 19.296875 9.375 C 19.296875 9.472656 19.265625 9.601562 19.265625 9.695312 C 19.265625 10.113281 19.359375 10.527344 19.550781 10.878906 L 15.617188 15.007812 C 15.269531 14.839844 14.886719 14.75 14.496094 14.753906 C 14.367188 14.753906 14.238281 14.753906 14.113281 14.785156 L 11.742188 9.984375 C 12.136719 9.582031 12.394531 9.066406 12.480469 8.511719 C 12.480469 8.414062 12.511719 8.289062 12.511719 8.191406 C 12.511719 7.808594 12.414062 7.457031 12.289062 7.136719 L 14.816406 4.769531 C 15.136719 4.929688 15.550781 5.054688 16 5.054688 M 20.511719 25.214844 C 19.519531 25.214844 18.6875 25.792969 18.273438 26.625 L 14.238281 26.046875 L 23.167969 22.015625 C 23.636719 22.546875 24.3125 22.851562 25.023438 22.847656 C 25.152344 22.847656 25.28125 22.847656 25.40625 22.816406 L 27.808594 27.648438 C 27.617188 27.808594 27.488281 28.03125 27.359375 28.222656 L 23.007812 27.390625 C 22.816406 26.175781 21.761719 25.214844 20.511719 25.214844 M 20.511719 25.214844 "/>
</g>
</svg>

<svg role="img" viewBox="0 0 32 32" xmlns="http://www.w3.org/2000/svg"><path d="M29.504 26.945c-.129 0-.258 0-.383.032l-2.402-4.832c.449-.45.738-1.09.738-1.793a2.54 2.54 0 0 0-.61-1.665L28.93 15.2c.191.031.383.067.574.067 1.375 0 2.496-1.121 2.496-2.532 0-1.406-1.121-2.527-2.496-2.527-.77 0-1.473.352-1.918.93l-3.328-1.313v-.16c0-1.375-1.121-2.527-2.496-2.527-.32 0-.64.062-.899.191l-2.785-3.457c.258-.383.418-.863.418-1.375A2.5 2.5 0 0 0 16 0c-1.375 0-2.496 1.121-2.496 2.527 0 .383.098.739.223 1.059l-2.528 2.367c-.351-.226-.765-.32-1.215-.32-1.375 0-2.496 1.12-2.496 2.527 0 .703.29 1.344.735 1.793l-2.399 4.832c-.129-.031-.258-.031-.383-.031a2.503 2.503 0 0 0-2.496 2.527c0 .895.48 1.696 1.184 2.145l-1.793 7.52A2.542 2.542 0 0 0 0 29.472C0 30.848 1.121 32 2.496 32s2.496-1.121 2.496-2.527v-.032l4.512-1.539a2.43 2.43 0 0 0 2.016 1.028c.992 0 1.824-.578 2.242-1.41l4.285.64a2.483 2.483 0 0 0 4.64.77l4.352.832c.16 1.246 1.219 2.207 2.465 2.207 1.375 0 2.496-1.121 2.496-2.528 0-1.343-1.121-2.496-2.496-2.496m0 3.52c-.29 0-.543-.13-.734-.32a.893.893 0 0 1-.258-.641c0-.063 0-.129.031-.192a1.01 1.01 0 0 1 .512-.671.961.961 0 0 1 .418-.098c.16 0 .289.031.414.098.32.16.547.48.547.863 0 .062 0 .129-.036.191a.99.99 0 0 1-.511.672c-.063.067-.223.098-.383.098m-8.574-1.856a1.05 1.05 0 0 1-.45.094c-.257 0-.511-.129-.703-.289-.16-.191-.289-.414-.289-.672v-.125a.93.93 0 0 1 .48-.707c.13-.094.321-.125.481-.125.285 0 .543.125.735.32a.89.89 0 0 1 .257.637c0 .067 0 .13-.035.195 0 .286-.191.512-.476.672m-8.961-1.343c-.13.093-.32.125-.48.125-.13 0-.223-.032-.321-.063a1.247 1.247 0 0 1-.383-.258.768.768 0 0 1-.226-.383.952.952 0 0 1-.063-.32c0-.16.031-.32.129-.445 0-.035.031-.067.063-.098a1.01 1.01 0 0 1 .257-.258c.16-.093.32-.16.543-.16.063 0 .16 0 .223.035.031 0 .066 0 .066.032.254.093.48.289.575.543 0 .03.03.03.03.062.032.098.067.227.067.32v.13a.903.903 0 0 1-.48.738m-9.473 3.199a1.04 1.04 0 0 1-.895-.61.82.82 0 0 1-.097-.382.92.92 0 0 1 .383-.77 1.01 1.01 0 0 1 .61-.223c.062 0 .16 0 .222.032.32.062.578.32.672.64a.863.863 0 0 1 .066.32 1.1 1.1 0 0 1-.16.544c-.192.257-.48.449-.8.449m1.313-3.137 1.855-7.52A2.545 2.545 0 0 0 8 17.282c0-.707-.29-1.343-.734-1.793l2.398-4.832a1.6 1.6 0 0 0 .383.031c.129 0 .258 0 .387-.03l2.367 4.8a2.526 2.526 0 0 0-.739 1.79c0 .831.418 1.57 1.028 2.05l-1.57 4.605h-.032c-1.375 0-2.496 1.121-2.496 2.532v.03L4.48 27.97c-.16-.258-.418-.48-.671-.64m.703-10.047c0-.386.222-.738.543-.867a.914.914 0 0 1 .418-.094c.16 0 .289.032.414.094a.994.994 0 0 1 .511.676c0 .062.036.125.036.191 0 .32-.13.574-.356.766a.994.994 0 0 1-.605.226c-.067 0-.16 0-.227-.035a.907.907 0 0 1-.637-.543.853.853 0 0 1-.097-.414m4.511-9.12c0-.384.223-.735.543-.895a.61.61 0 0 1 .32-.098h.098c.16 0 .29.031.414.098.098.062.227.125.29.222a.97.97 0 0 1 .257.672v.192a1.009 1.009 0 0 1-.511.671.998.998 0 0 1-.45.098.868.868 0 0 1-.418-.098 1.012 1.012 0 0 1-.511-.671c-.032-.063-.032-.13-.032-.192m6.88-6.626H16c.063 0 .16 0 .223.031.418.098.738.48.738.93v.031a.98.98 0 0 1-.352.77A1.01 1.01 0 0 1 16 3.52a.916.916 0 0 1-.703-.32 1.029 1.029 0 0 1-.258-.673v-.16c.098-.445.45-.765.863-.832m6.081 7.2c.254.066.48.226.61.449.093.16.125.32.125.511 0 .13-.032.258-.063.352a.857.857 0 0 1-.61.578c-.062 0-.093.031-.16.031h-.124c-.258 0-.516-.097-.672-.289-.195-.16-.29-.414-.29-.672v-.129a.985.985 0 0 1 .962-.863c.093 0 .16 0 .222.031m7.262 3.042c.098-.035.195-.035.29-.035.35 0 .671.195.831.48.067.13.13.258.13.387v.125c0 .418-.259.77-.61.899a1.154 1.154 0 0 1-.352.062.957.957 0 0 1-.96-.96c0-.126.034-.255.066-.352.062-.285.32-.512.605-.606m-1.598 2.621-2.082 3.489a3.488 3.488 0 0 0-.574-.063c-.863 0-1.601.45-2.047 1.121l-5.953-1.761c0-.383-.129-.77-.289-1.122l3.969-4.125c.32.16.703.254 1.121.254.766 0 1.473-.351 1.918-.925l3.328 1.308v.16c-.031.61.227 1.22.61 1.664m-1.664 5.954c0 .062 0 .128-.03.191a1.006 1.006 0 0 1-.513.672.998.998 0 0 1-.449.098.9.9 0 0 1-.77-.418c-.03-.063-.062-.125-.093-.192a.82.82 0 0 1-.098-.383c0-.097 0-.191.032-.258.035-.062.035-.125.066-.19.094-.192.285-.352.48-.446a1.05 1.05 0 0 1 .352-.067c.062 0 .16 0 .223.032.062 0 .128.035.191.066.031 0 .066.031.066.031a.95.95 0 0 1 .446.735c.097.035.097.066.097.129m-12.418-3.297a1.02 1.02 0 0 1 .512-.672.538.538 0 0 1 .29-.094h.128c.16 0 .29.031.414.094a.496.496 0 0 1 .258.191.957.957 0 0 1 .289.707c0 .094 0 .192-.031.285a.973.973 0 0 1-.387.547c-.062.032-.129.063-.191.094a1.149 1.149 0 0 1-.352.066 1.17 1.17 0 0 1-.32-.066 1.043 1.043 0 0 1-.48-.352c-.063-.062-.094-.16-.13-.253a1.191 1.191 0 0 1-.062-.32v-.13c.031-.03.031-.062.062-.097m-.605 7.328 1.504-4.606h.031c.863 0 1.602-.449 2.047-1.12l5.953 1.757v.195l-9.152 4.125c-.098-.125-.223-.222-.383-.351M16 5.055c.32 0 .64-.063.895-.192L19.68 8.32c-.192.32-.32.672-.383 1.055 0 .098-.031.227-.031.32 0 .418.093.832.285 1.184l-3.934 4.129a2.52 2.52 0 0 0-1.12-.254c-.13 0-.259 0-.384.031l-2.37-4.8a2.68 2.68 0 0 0 .737-1.473c0-.098.032-.223.032-.32 0-.383-.098-.735-.223-1.055l2.527-2.367c.32.16.735.285 1.184.285m4.512 20.16c-.992 0-1.825.578-2.239 1.41l-4.035-.578 8.93-4.031a2.47 2.47 0 0 0 1.855.832c.13 0 .258 0 .383-.032l2.403 4.832c-.192.16-.32.383-.45.575l-4.351-.832c-.192-1.215-1.246-2.176-2.496-2.176m0 0" style="stroke:none;fill-rule:nonzero;fill:rgb(25.098041%,25.098041%,25.490198%);fill-opacity:1"/></svg>
